X: 87
T: The Old King's Reel
T: Reel, A Dorian
L: 1/16
M: 2/2
K: A Dorian
A2| E1A,3A,2B,2 A,4A,2A2| E1A,3E2^F2 G2E2D2B,2| A,1A,1A,2 A,2B,2 C4C2D2| E2G2D2C2 B,2G,2G,2A2| 
E1A,3A,2B,2 A,2G,2A,2B,2| A,1A,1A,2 A,2^F2 G2E2D2B,2| A,1A,1A,2 A,2B,2 C1C1C2 C2D2| E2G2D2C2 B,2G,2G,2|| 
d2| ^c2A2 A1A1A2 c2A2e2A2| ^c2A2B2c2 d2B2G2B2| ^c2e2A2B2 =c4c2e2| g2a2g2e2 d2^c2B2e2| 
^c2A2 A1A1A2 ^c2d2e2d2| ^c2A2B2c2 d2c2B2d2| =c4B2G2 A2c2B2A2| G2E2D2C2 B,2G,2G,2||
